X: 14666
T: Gan Ainm
R: reel
M: 4/4
K: Amixolydian
|:Aeed eede|eede dBAG|Aeed eede|1 eedB A3G:|2 eedB A4||
eaaf geed|eaag f~g3|eaaf geed|BcdB BAGA|
faaf ~g3a|eaaf ged2|eaaf geed|BcdB BAG2||

